docs/public/svg/integrations/android.svg

<svg viewBox="0 0 1274.37 718" xmlns="http://www.w3.org/2000/svg"><path d="m930.77 536.42a53.07 53.07 0 1 1 53.06-53.08 53.14 53.14 0 0 1 -53.06 53.08m-586.54 0a53.07 53.07 0 1 1 53.06-53.08 53.13 53.13 0 0 1 -53.06 53.08m605.57-319.65 106.05-183.68a22.06 22.06 0 1 0 -38.21-22.09l-107.39 186c-82.12-37.48-174.35-58.35-272.76-58.35s-190.63 20.9-272.75 58.35l-107.38-186a22.06 22.06 0 1 0 -38.22 22.06l106.06 183.71c-182.11 99.05-306.67 283.41-324.89 501.23h1274.38c-18.24-217.82-142.79-402.18-324.89-501.23" fill="#3ddc84"/></svg>

<svg id="Layer_1" data-name="Layer 1" xmlns="http://www.w3.org/2000/svg" viewBox="0 0 1274.37 718"><defs><style>.cls-1{fill:#3ddc84;}</style></defs><title>Android robot</title><path class="cls-1" d="M930.77,536.42a53.07,53.07,0,1,1,53.06-53.08,53.14,53.14,0,0,1-53.06,53.08m-586.54,0a53.07,53.07,0,1,1,53.06-53.08,53.13,53.13,0,0,1-53.06,53.08M949.8,216.77,1055.85,33.09A22.06,22.06,0,1,0,1017.64,11L910.25,197c-82.12-37.48-174.35-58.35-272.76-58.35S446.86,159.55,364.74,197L257.36,11a22.06,22.06,0,1,0-38.22,22.06L325.2,216.77C143.09,315.82,18.53,500.18.31,718H1274.69c-18.24-217.82-142.79-402.18-324.89-501.23"/></svg>
